public/images/card/glyph-1.svg

<svg height="62" viewBox="0 0 54 62" width="54" xmlns="http://www.w3.org/2000/svg"><path d="m18.5 43.7v18.3h-18.5v-18.3zm0-43.7h8.5v8.5h27v35.2h-35.5z" fill="#f7e0f1"/></svg>

<?xml version="1.0" encoding="UTF-8"?>
<svg width="54" height="62" viewBox="0 0 54 62"
  xmlns="http://www.w3.org/2000/svg">
  <g fill="none">
    <g fill="#F7E0F1">
      <path
        d="M18.5 43.7L18.5 62 0 62 0 43.7 18.5 43.7ZM18.5 0L27 0 27 8.5 54 8.5 54 43.7 18.5 43.7 18.5 0Z" />
    </g>
  </g>
</svg>
